X:821
T:The vanishing leprechaun
R:Jig
O:Ireland
S:Irish Traditional Music Session Tunes 3
B:Irish Traditional Music Session Tunes 3
Z:Transcription, chords:Mike Long
M:6/8
L:1/8
K:G
"G"~B3 BAG|"D"F2d d^cd|"G"B2g gfg|"C"eag "D"fed|\
"G"~B3 BAG|"D"F2d d^cd|"C"ede "D"fef|"D"~a3 "G"g3:|
|:"G"gfg b2d|gfg b2d|"D"(3(fga) g fed|fag fed|\
"G"gfg b2d|gfg b2d|"C"eag "D"fef|"D"~a3 "G"g3:|
